X: 3
T:Bryan O'Lynn
M:6/8
C:Trad.
K:C
BB|:cAd cAG|EDE GAB|cAd cAG|EAA A2 B|
cAd cAG|EDE GAB|cde fed|cAA A:|
^ff|:gea ged|cAB cde|eaa age|dBc de^f|
gea ged|cAB cde|=fed cAG|EAA A:|

